X:1
T: Auntie Mary
C:
R:Jig
Q:180
K:A
M:6/8
L:1/16
a4e2 f4e2|a4e2 f4e2|c4c2 c2B2A2|B6 B4e2|a4e2 f4e2|a4e2 f4e2|c4c2 B2A2B2|A12|
a4e2 f4e2|a4e2 f4e2|c4c2 c2B2A2|B6 B4e2|a4e2 f4e2|a4e2 f4e2|c4c2 B2A2B2|A6 A4B2|
c4c2 c2B2A2|c4e2 f4e2|c4c2 c2B2A2|B6 B6|c4c2 c2B2A2|c4e2 f4e2|c4c2 B2c2B2|A6 A4B2|
c4c2 c2B2A2|c4e2 f4e2|c4c2 c2B2A2|B6 B6|c4c2 c2B2A2|c4e2 f4e2|c4c2 B2c2|B2 A12||
